icons/desktop/16/svg/local-network-slash-16.svg

<svg width="16" height="16" viewBox="0 0 16 16" fill="none" xmlns="http://www.w3.org/2000/svg">
<g clip-path="url(#clip0_8069_30385)">
<path d="M4.99991 9.99988C5.55216 9.99988 5.99985 10.4477 5.99991 10.9999C5.99991 11.5522 5.5522 11.9999 4.99991 11.9999C4.44763 11.9999 3.99991 11.5522 3.99991 10.9999C3.99998 10.4477 4.44767 9.99988 4.99991 9.99988Z" fill="black"/>
<path d="M8.24991 9.99988C8.80216 9.99988 9.24985 10.4477 9.24991 10.9999C9.24991 11.5522 8.8022 11.9999 8.24991 11.9999C7.69763 11.9999 7.24991 11.5522 7.24991 10.9999C7.24998 10.4477 7.69767 9.99988 8.24991 9.99988Z" fill="black"/>
<path fill-rule="evenodd" clip-rule="evenodd" d="M0.219639 0.219609C0.512517 -0.073203 0.987309 -0.073203 1.28019 0.219609L15.7802 14.7196C16.0731 15.0125 16.073 15.4873 15.7802 15.7802C15.4873 16.073 15.0125 16.073 14.7196 15.7802L13.787 14.8475C12.0321 14.9485 10.2612 15.0018 8.49991 15.0018C6.62697 15.0018 4.73104 14.944 2.8671 14.829C1.8201 14.766 0.999913 13.887 0.999913 12.83V9.17371C1.00008 8.11688 1.82496 7.23874 2.87882 7.17371C3.90922 7.11025 4.94442 7.06848 5.98136 7.04187L0.219639 1.28016C-0.0731928 0.987258 -0.0732335 0.512482 0.219639 0.219609ZM7.44815 8.50867C5.95674 8.5262 4.45501 8.57915 2.97062 8.6698C2.71085 8.68594 2.50008 8.91196 2.49991 9.17273V12.829C2.49991 13.095 2.70091 13.3149 2.9589 13.3309C6.06396 13.521 9.22297 13.5488 12.3554 13.4159L7.44815 8.50867Z" fill="black"/>
<path d="M13.2499 2.99988C13.6639 2.99988 13.9998 3.33594 13.9999 3.74988V7.16492C14.0442 7.16755 14.0885 7.17002 14.1327 7.17273C15.1797 7.23573 15.9998 8.11388 15.9999 9.17078V12.828C15.9999 12.935 15.9856 13.0385 15.9696 13.1415L14.4999 11.6708V9.17078C14.4998 8.90589 14.2988 8.68581 14.0409 8.6698C13.1579 8.6148 12.2669 8.57476 11.3759 8.54676L9.84952 7.02137C10.7344 7.03433 11.6189 7.05646 12.4999 7.09168V3.74988C12.5 3.33594 12.836 2.99988 13.2499 2.99988Z" fill="black"/>
<path d="M5.58976 2.76062C6.13969 2.77462 6.66091 2.90275 7.12687 3.13269C7.44475 3.28964 7.49798 3.72576 7.23331 3.96082L6.99796 4.16883L5.58976 2.76062Z" fill="black"/>
<path d="M3.2548 0.425664C5.15779 -0.259328 7.35935 -0.056661 9.06534 1.06434C9.411 1.29244 9.50809 1.75754 9.28019 2.1034C9.05221 2.44823 8.58806 2.54702 8.24112 2.31824C7.13212 1.58924 5.74883 1.36869 4.46183 1.63269L3.2548 0.425664Z" fill="black"/>
</g>
<defs>
<clipPath id="clip0_8069_30385">
<rect width="16" height="16" fill="white"/>
</clipPath>
</defs>
</svg>

<!-- This Source Code Form is subject to the terms of the Mozilla Public
   - License, v. 2.0. If a copy of the MPL was not distributed with this
   - file, You can obtain one at http://mozilla.org/MPL/2.0/. -->
<svg xmlns="http://www.w3.org/2000/svg" width="16" height="16" fill="context-fill" fill-opacity="context-fill-opacity" viewBox="0 0 16 16">
    <g clip-path="url(#clip0_8069_30385)">
        <path d="M5 10a1 1 0 1 1 0 2 1 1 0 0 1 0-2M8.25 10a1 1 0 1 1 0 2 1 1 0 0 1 0-2" />
        <path fill-rule="evenodd" d="M.22.22a.75.75 0 0 1 1.06 0l14.5 14.5a.75.75 0 0 1-1.06 1.06l-.933-.932a91.898 91.898 0 0 1-10.92-.018 2 2 0 0 1-1.867-2V9.174c0-1.057.825-1.935 1.879-2a87 87 0 0 1 3.102-.132L.22 1.28a.75.75 0 0 1 0-1.06m7.228 8.289a91 91 0 0 0-4.477.16.51.51 0 0 0-.471.504v3.656c0 .266.2.486.459.502a91 91 0 0 0 9.396.085z" clip-rule="evenodd" />
        <path d="M13.25 3a.75.75 0 0 1 .75.75v3.415l.133.008A2 2 0 0 1 16 9.17v3.657c0 .107-.014.21-.03.314L14.5 11.67v-2.5a.497.497 0 0 0-.46-.501 87 87 0 0 0-2.664-.123L9.85 7.02q1.327.018 2.65.07V3.75a.75.75 0 0 1 .75-.75M5.59 2.76c.55.015 1.07.143 1.537.373a.506.506 0 0 1 .106.828l-.235.208zM3.255.426c1.903-.685 4.104-.483 5.81.638a.75.75 0 0 1-.824 1.254c-1.109-.729-2.492-.95-3.78-.685z" />
    </g>
</svg>
